-----BEGIN PGP PRIVATE KEY BLOCK-----

lQdGBGjd5pEBEADT5O5jG1yFa7CHBXKqk7PH7C20OtadT45NPJfQjzoZObgq2Dur
zvMfqI11gUBCOJIuDXSzzFJjQq2xztkqMjTOMx9JYoTQxNGqhtDyUCRJGvVv0+KJ
JgHmZpX1wWBK5jCUO0scLO1MoGxvLR7yJS2asy+F8UXSLv6RrVd1toG0nX0/5pYr
4HRNsio5X7UH0uWQQYpNoYOzUNqFDBBXr4mzzLQALpxtHoJBV+MmirGtNyM0FP84
T5OfiE1r0JqRQPVB9o8EopIGNaNu7ok65Rpjntx/C+KkD1TwwLtEXrjBDpD6eagZ
a9WoEIxTMfjB3PqfNjr327K0w7f/xbKnEPlvKAN85yZrwhvOKLsG+AXXZmmA95P+
aDF9O/wLG2oLSOAypj7x2eOPDpMORXjUOJX6dNLW/325WooSl/2xlwFsrP0UXzvh
jlO+MDLkbenPVb+Cuqp2DYfNWRSugsOPMXfaAXuPqCeKaYXQik3v7YNUFHpEV6Xg
+877nVJAuaebXxu4MdbwuU9aiPKoUvBXMQRKa8nWijXww5HCz21XIXCk+mG3OQ16
ZQJpc0BL54t9k25c240Go+Sq0uFWyRfQ6DpS9GVD0nYUntLqvjle4mNKXvl/XLG7
PyrNw40UBQaRD1lGfX//VyGhpRPXZR2ZMa/DSKIBJEKmsoi1leN6pzpkCwARAQAB
/gcDAnmK6uACTTzn8i0aPyhLpCWyaU8yQLKpfhxXbpHkvpgYr7FUwzGqgfBqaRQH
tu40a0RfP0Es1+ghAmXD342q4dRqTt2xDd+aJqQHbGqViksVv+bT05veTsMy8s00
jg+NyIGbijQD5xQG4KXsybUXw4BMt63epLGptf+LjbWtjPOjfiXOEfPst1TJeYxl
LKyUiTHlPdmyrjJBsckownl1Fisvlnuu+PKmoTqp02Ki7vpAQKPwg3Lhy9XkQaJt
6YUc/EKnLMbEGJMiE6pByusW65pXJ6oeREMQC8xvgnZ7BJpkwWHK/rUwlUsOCXxy
PqxPAxgVOd5vFaAgaSl8mAVx0ZMuTehq1NHf6o+qP/l5dihaUkxdkRipBJLxd0Mq
7JkwwmsOOND7X9/9l4g50MRNvzXNvGIXie6A5ImRIinr0gAdKdDAQDOZrOoks3vW
mPGfcMzgFfFulMFdzkYfuiVJUHpA04YIxAl98PBMQ2HyWRdGESe06U1KBW7gpRMl
Dx8eJ4bTW/PMsTaTATNSV4JM0pQy+nTw2sL5YM9PCwk4Icr1YWAJiu1m0t63Hlwr
8MqM9By8r7xDtYThhPilBN2woSsYDdVKZGNm3gu43Ooc1t0bbNF+/oKtoY5Au3Vr
nhBfdPil1MnPje9vPs+k0u9DXFrFN/eWGgtxUGiLeIsjqSjPK55HtbTOEvPGdRbN
cvzFGOVq+YDbGz4BAUO/n1okp9zLJ26lutM0ondCfL5nBX2jFG6zT+FZXS7QS7fS
TUqwjGjr8cWPUNko0V9otiLUyxtE1nzQVAmWOY8yRT5SW3ArtDU+MvhknVbXdx+b
UpEY7hKfvGfe2MZl63zgZhEMmyFH5mcUjQ7MN53/01+XJGeq3861E08MTxDq/8Yj
V4P2T4DOIebI/+sI+kd6zHrfB5PoOgVxDFNuRtoL/SWTFCb1a79Gkyi8D3jPBw6S
t8UWTJjNN7JXbjKG0DTq+EcH3AL/hgFf/dcMYogCKE+B3z6jtPozbLOEiMhqHZ/9
or/m12b4l7txLUuL0xjmF8lyoVsY8Ac/hj7kWx9wLluWQaxfTbjdrAUkcjL9US6n
ymFSqkKkkLgT6DVQe8ybRGElQXmPBj/0BYPGH03C+1BR2pGgOVo19NULdLntCtC8
p+Ohf4GvtR/AJ9RM3Uaq9x01n+bjINH9skcxRwdbwyL3r1a4fqyA8K8fJLvPf3Sg
kzc/F1CFpvZ4cZM/wsd2tCamvklGDL0+XS1w2y+CeHa5qyVNAEI8n5dT8YcfW4Bs
uQPCMoXAW+Zhb3ItioGQnu7hZxOcQHSIjicyOjP4B/0dpmvCaq4L/hQ0DOVah6oF
PqHf1qLYEcWNQSbr8oZwc6xvFdos1ciynCiV/SXF2GlWxX9V8pdbZm1cf0XjFXOu
N6oQoIEIkjqcMbOGyyf1L59glixUW+7vPAs5yehLnLxBCX6xLrVo0vTcZo1VLS0T
K8feuLWumVwBi1Vj9svjzItTHAc5nU0Uwjst67ciNig16fjNNwYbH4Sj//AjB/13
JGYzkfwr35oj0mEy/TOpQgum47ZszF07E+1OgWuuMmA9kxYjup0tJ52FydJVyqFj
eaYxfmenz87uycGy1xQe+QZKm8blmUdg/gfhy+c0yuDJG7j2UKyZWEtFqHyL04km
Fzj7OZOi/khwEikM0SMpBdyMLUc/Y4VGNR4a4pguDLY6jcGYZAMXHI+KOv61yuOY
/6JSMoah3gjZ/FkPVbnNqMr2M0vHtgkl+UE0ZPSQNl6NNXkOj63yZsC0I0Vsb2th
IEFueWFvcmFoIDxsb2thbnk4OEBnbWFpbC5jb20+iQJRBBMBCAA7FiEEgZphEwVe
3xokfuU4MJVGfGw+O8wFAmjd5pECGwMFCwkIBwICIgIGFQoJCAsCBBYCAwECHgcC
F4AACgkQMJVGfGw+O8ytiBAA0rjMNo7rgKChaUbaeJBcLxOvMRHFjPUsrsXrtJEJ
w7E3izI0tjzd8+fNlYitJc+MuneKsz5BDu6C4ewE+QFXMHmYKyxPm6PMN1e5d+bv
o5g+F2BaFV1fiXqCnHk/0iyp3Ah1mdF177ibkMxT3vzJ2z8iY2iVZM8VGBTlheGS
wbrn1tJhKW1tzoxaPxhu8fI+BB23ioF71I1+EZo13WmkQJZQXF6QJN1u+PRz1inm
g6bzpMy0ZkEZGTxtOTOEpFDnfG1ZicqSSrRNmfzUJazfHsjenrDwl+B3ZY5FWN8m
SQ7JngbqN4GvVm/8qQ8bqchhYEerwM61B+eVbjyTys6bY39ta9O8u7RG6432rVJH
iZnL8T2KTKY7CqMTzztX276/BFqiEqZCcUKK/youmRhrfuV2R/8beWZJADN1GZnK
XV2kQ7z8L6fIuCy+au3GNizWE5AAxPK8ILhZo+NTkLb3hXZFRsdVm5z5M/umqZVP
5LiBK5WUzqCpR2UsHfHvdQbLoebdiYSdjh9dQK7Q0ZyA8I1jxLMgYW3hDi/tIX3X
ZMZAMYj0SBmZgHBKhbjKWz7fP4uya5MiQaL3eQB1u+HpXxHa8i/9T5sKdFycH0S8
8nEpw49eESLqtbpStdKRpiksIHevl40mOR6uos/zWuWxV63x9P+ww9IaYREnd66u
EjCdB0YEaN3mkQEQAOOc//RR6kpnq1/BrcVWE4uSkFn9dvCdXKHT3i8Z0svyB7f9
OeKKgCYH4T+rcai9whQFYLbCEtCczCYy57a9k1hfUDIsNflwaPqLcUH/3tYi/+J3
2Q1zOhZQdUUX1Yw5/9HjmWa9Y0Q7+rHU8/3jhCku+vhgbrvl3aXEfRuZBbbGcsNL
SrHvK4ZmM8hwSe70xjiYd0gwCdF+QuzBbb80kRN8JhmWPReBL2tQsmg3pLWpIdFE
h+3forh2hs+OMOiugxzGRsuOq3jX7Yg/tyIMKmRKca+SnoNLDmzPQrqAlp9jWkLG
N+EtbQHH646MDHDf5tQcQmfoCTVNBvsenQ/VyWQuQ/rPf09etWKmI9B3SkAxrcWA
BE+9kilI1taF0hzV0c/m3A/kjnIbp0s9Nxba2lJzRW6fma4c/3Jvbx9h5dpx1FG6
vqE66jh2J3QFsWLR5Bd3kzgmpnahTwZnbRR8Cdfu6tjg2sQ7dmmSmvtmefH0/Zak
pCko5unl998eSuMxqdCf29lBjcGyQSO2Kp1E6Ll8qurEUmBKbLWjRVasQlEcwkLE
eqekVjBSUqZ/zBOJrKwvNuNqt9BNxxSpSCmqvnXFxPc7GPo0KriKyZZykk3lb6lv
UDFdp6mJLvPnevoZ8xMSh0VqPAEQMvLTUWQrAQiKtIUU2so24KI1X3nJc2m7ABEB
AAH+BwMCONqQ56bPBQLy5VPH8OdKDioc3xkkmiHBdKVY2KhCuDFsJgkBNGhN5qk/
Rc4ku+K0V9dQqIZ94eOjgp2S+1Knt/DnXAIP/lbOKeGyiKgqYaaf6EVp4STa+uUI
z0zpFz2RKOY8Vh/776p1axHxksXBVm4TFgjR8i5OwoTz+1miL6ATrK4kHA2h4Lhw
HkKJSs5EbpkGpsDGbauErN+Cr9xwKrbFWS1DkahKivtY4JVw4oNSKuWbyEPW0/Lm
DOZR4uluQNDa0FEGE3ZkSCKAjAOyQtaO+1INYxaeynsR04tuHZZFW7uJxcg4PcXb
xTU9EaOgchsZsZECijf9b57tWjlRM1T9ktrn48HWDAN3U+WUduu9L3HRHrWtw4oo
/dsdNZ3dHEXI7hfy5PlS3yY9JAqfVFq6EKQMkr6VAfXZ0Ht/e57pIWRtqzLsUdhD
KwDybhK6ZoyKcjO4KmOogsjhC1bmXiaayZr0tzL8uld9dkEv5OXYu/DPGp/FHhIa
obh3iMGeN8KaGhivKLwREmberTEtraLctTa2QTd8aoCDb2TVhZXjOb4U8+GFTmoG
ha6+06zzIgp9DamZZtDNY/YGiSjUs3ZnbbmH6SqUfcPY7Et7USKd/iwU8rS7ERdm
h39B185PUjdSryennxUKouXvVBI+5j+2Nm+u4OMfKfWkKFbOQYl+LFWvqhSNftoX
BABe5RtQNSZaO1lEhQM509j5I7r5l4WLXhv5/24X0lEeVEcyIegXINghRpqTXZL9
i46QUcuB/YZlr90/lItavF/89iufJbLW8iq5ZXANHC7iMVj0Je1GC10+z6TKTD0B
b98mfjw0Y2NxRTGqt2gm9wLNgpqPcV8SW/LGnOSGSmdnQpcQfKSJbjgA/XGFKwPi
aD5MW/R0bbRMwNOHf4dWuTJhdVAHnw8D3r25dL5X+pST7AoJcuO7LIZQhu59r685
lGCQ+5AMV/BHRS/3IyTx96aCQjXcETQ7dSXQB9sRh6H1p0a7lP9GtZ1wmX+ogWsG
5tLpSKK2HE1gFKMuhpwLnhy8DO4jXvylRDcXT9rgAJI3XtOcpROW09rqYRkDxJjm
W0ElRJR0FfuDnuJAuY45kkjI0SNteaoJVGrkEuSOiHnAbmG6BQP4AnfbxOf0GBAh
MfafJFbtDvVuGXnKIyf37/KIQ8KtpjaJZZpjDMf/3KiOIfZYUqzelepnF89tpDs9
IfzLWx/ONSPEp7fF2Mk7x8cqA6QjmYLz56TLwhqILKmhYhwJyKkQ5AcbemY7Abh/
ak3CfW/oWuYifex+gSTh9I+UM3PJLKkMU/RSmzQ7QMFxOhDmUSKHqq37BFEJdLIM
AWagW42pcgsbw8Q4IfYWAlFvt3BCCKOMpovS1/iTZxp8WkFAqhHCGKSCJb4Pq90x
T+PVgSO/9Ih+TSZs2YPlC3+kyW5lZLMzu5F6yQTwqY0fkB6VeTjG/X42OaNtaVkT
dwBTZA+JHhXde0DfSXrDtYJXcYjqmwOtCJYZbEFXmzrvBZ8kWXV+1RznM1T+4ybL
hA4E9kRud9D9Dy/BpYU6VssENTA4sZaFAGaeb/MPjk9gCEe5v6LwDEJI1udkSrZU
v5hUUsJFGMyt2A/o5PXN/UnwiXa3QVn3EWQpF79NN8uLyKh9Zy927/Yb3sO+4WZr
5j0MXdhJcdgLwQqjZMb+l9GjUnNmYkWjF1BOBtZ+rhA+VtSv3HAGa2GSIQgr+n59
6sOG9wbH0M4Ek767dnv6GvGM5mWfA4I3qFPAirGX/evTAinsgP/nzlEFgIkCNgQY
AQgAIBYhBIGaYRMFXt8aJH7lODCVRnxsPjvMBQJo3eaRAhsMAAoJEDCVRnxsPjvM
wbAQANCHwNvFq14oQRVofMUIdNplwe7t+/RQRwV5wwYiZDau0Q57dP1QqvLc7cot
0Lv6OyprPt6v9QQ4KAjNtCFJuFqI7I7IMeRK9WQ7G4ecrY6iFaq1FCVgSKjJEfAn
IfFNoa9BoEXqs3/H8Di5a6WrRpCsuAvLQ7bY1/9F5JhyhSXbfhydm3zzgo8pzwol
IMYjxZtpd9E1OKexaWKXYGqZKaXzeKOADvCFCit5rlyODOKwVPk6wxJjn5d49Ha7
atYkKHLG7MzLfON/LV9njbG6YwheF3cxxkp2DIEGB0xUo19siiYLwyMHjbJWiVOh
2fP8KTwhlKEedInVLgEMLCYAEG0Mj+dTH2RLhGL3a8AABFJ/OkpL0I2AJVlIkcHQ
z/t/r2z+CJHeB7Cy/33YDQ/V0ysp5B/XQCoLaJ1lhedlI0ghSTNDE8BzC9U8IKEu
gH1y4wVnJDXV2JBj7xhMNomVXYy6wtSaEuTKChp8g6+kdscT1je1JOgxKwjXhWdP
6pmAPSGT0tol0G0YJokkA6yctynIFcRqj6azXT9lrQZBFOjukByqHCjsoSYm3md/
OLu5eZrG+o4KZVlAPUW6W5MUDzWk+rSqExPdxsKwUdLFkhRZRDzG4iBDD1W5xPUP
g/xBpLlA6/yCDskDRb+FNF45bNmDDYuK0MMhs1JvW5boHdUU
=bckp
-----END PGP PRIVATE KEY BLOCK-----
