-----BEGIN PGP PRIVATE KEY BLOCK-----

lQdGBGjd5pEBEADT5O5jG1yFa7CHBXKqk7PH7C20OtadT45NPJfQjzoZObgq2Dur
zvMfqI11gUBCOJIuDXSzzFJjQq2xztkqMjTOMx9JYoTQxNGqhtDyUCRJGvVv0+KJ
JgHmZpX1wWBK5jCUO0scLO1MoGxvLR7yJS2asy+F8UXSLv6RrVd1toG0nX0/5pYr
4HRNsio5X7UH0uWQQYpNoYOzUNqFDBBXr4mzzLQALpxtHoJBV+MmirGtNyM0FP84
T5OfiE1r0JqRQPVB9o8EopIGNaNu7ok65Rpjntx/C+KkD1TwwLtEXrjBDpD6eagZ
a9WoEIxTMfjB3PqfNjr327K0w7f/xbKnEPlvKAN85yZrwhvOKLsG+AXXZmmA95P+
aDF9O/wLG2oLSOAypj7x2eOPDpMORXjUOJX6dNLW/325WooSl/2xlwFsrP0UXzvh
jlO+MDLkbenPVb+Cuqp2DYfNWRSugsOPMXfaAXuPqCeKaYXQik3v7YNUFHpEV6Xg
+877nVJAuaebXxu4MdbwuU9aiPKoUvBXMQRKa8nWijXww5HCz21XIXCk+mG3OQ16
ZQJpc0BL54t9k25c240Go+Sq0uFWyRfQ6DpS9GVD0nYUntLqvjle4mNKXvl/XLG7
PyrNw40UBQaRD1lGfX//VyGhpRPXZR2ZMa/DSKIBJEKmsoi1leN6pzpkCwARAQAB
/gcDAnL1DcgSH/Ys8hbfgv2Y9FAxzPkGq7tsdVj9CGxqC0/H+TlKsbU2Ix4uFAXs
v5CzYCP8J4OsmE80RQKGhE2MW2MScPffbWL6pHHtB2J3ka/aIGe0FNTwM6Uf65m1
Gm+7tdjJ5VIxvGhqrqev5kY+5he6knMooyQUFsmP77+9UrVpCx2mbyHA6aTorKDT
AxTeGO9v5e/UuBovkJpJKGmTBi0YEaz1Rfb+wA37W+zPToADCts3S3ky+nIFSFOX
h0kZtDRFOa80RMNrN/wUjyaEVCY+v6qvWvA4CRpL+xF3DuHIZzvNcjKgtRdwmcpm
u4CEUs4XZDVbM0U+loqLgeLZR6y8WbctWgypPowiqMSQccs3705YSXo/RvKqsDDM
shZeeUgtA3yYleJLOqFlbJrp613O0mMvgQsZxCrrP12MQJ7Euk2dOS5ZQ+550Vir
wY2DIYbO5CQr/6dULLLUeXPDLuAiT7xcXM6v0nSYpQpko/wmKuaLelODZyiEbc8p
h9/9/ASmuuw8Wgz/1RsSWt4S7qWBt6t6qzQxpX1XU0Y7Cz4h/TJqPXuZxsKH0SLp
3pRnso0w6wx05bplIVIftJOpsH4DOv3vAwfr/PfkxZ3P01d9CyNYgZFryJTnvrpt
48fI+O+iev8ToktS7x+lJ3VRGq3nF/lHvSupZFZE5Xto5EYIoP5xdrBNjqGMsgYW
R5g9dktVgoxR2fIeCpYEaQs1P9aaVmCyItSqspYw8gF67UQYDtTIb5yy+fE3gy9+
56gDS3tYsZIwOt13joADbz9b+GM6YxSCjCd5+LkE2r3qqwud2UTQGwNavY/zkFEB
BQiCXbT6j6qfrim/u8HjW5DIaaQFXznkLZQbAFefxmUwT9MRvGAm3yyyr1wJ6Gni
cpd+nDSmdJC+8/EcWkhPwzUuAOOBYt+Z2BMY8mnrBSvsFm+D28hXsOkvAyyGltzn
yi4XwQK2Y/gt5oJ2x1mVhAMo0Y2jEWQ7CBeN6fpQeXOWp/WR9GeYhkmK3ShmvzV7
qX5EP79ToYwcXB6USgWFtXsDV3iZLlnP/fBTvoRsT04OI9n2UkkjK2E/KS9vJvSd
KFgj/ddSaizGltgsGB+qC0+tYdL+8tdzI+6f70zYQteCdRu7eCugya6PqRjE6aQd
o6EIqUmQsWkArjswjOkzgHnQmpytVrnNPjmH9281qKS4eQmqpvm0nD5mvB79f7w7
aZbzMGERIkAcDWvEnpq9xtGO/7+kgOTUiBXt2s3/NMW+UGfzB8khN6ukRgDV9oC7
JLxpjU3VEppg6BUZmNrY1R23Rne4qqpsCwkqMFM77s7aY00cJUdxBE/ET1herDbx
8PGqSRrMCtL7VsxNCVza02q4FhW+UBThR64buo7sgTs7U1LqXo7ldpQbI5IfYOKX
N0KyZpoLR6yQ4/mL/Eo5BfGFI1qV5JqBcpr7F61pBmzI5uBR5GD3z/C+gcwxwcU/
pmj7/Sjw9QeOTOBvXQ4QPtxiYOXasOSve06EUWsztox3dmHQLKZ52USYtTTnfqH1
Ktky9oLNBu/pwpNIxJiUGRPNoJYV/xjlwrNGn88IaD+oY43S67g42Yl/9gtr4aQ/
uoeTHTvK/PfrrnTJicgUZlSDBEAF0hCC74rmmBsuJAlLV75yh8PoP+P7EUAxq75v
01yR9yLkM2HZtOb1jsDzm4bLE0TKgDFWVaAvH5trErsJUOtDePZA+c8jTmjZXj56
d9uH2KXnkebGwOxhgovxVE5tLOVsCcpvwl4CPRS1BgsoMyp0a9BIDlm0I0Vsb2th
IEFueWFvcmFoIDxsb2thbnk4OEBnbWFpbC5jb20+iQJRBBMBCAA7FiEEgZphEwVe
3xokfuU4MJVGfGw+O8wFAmjd5pECGwMFCwkIBwICIgIGFQoJCAsCBBYCAwECHgcC
F4AACgkQMJVGfGw+O8ytiBAA0rjMNo7rgKChaUbaeJBcLxOvMRHFjPUsrsXrtJEJ
w7E3izI0tjzd8+fNlYitJc+MuneKsz5BDu6C4ewE+QFXMHmYKyxPm6PMN1e5d+bv
o5g+F2BaFV1fiXqCnHk/0iyp3Ah1mdF177ibkMxT3vzJ2z8iY2iVZM8VGBTlheGS
wbrn1tJhKW1tzoxaPxhu8fI+BB23ioF71I1+EZo13WmkQJZQXF6QJN1u+PRz1inm
g6bzpMy0ZkEZGTxtOTOEpFDnfG1ZicqSSrRNmfzUJazfHsjenrDwl+B3ZY5FWN8m
SQ7JngbqN4GvVm/8qQ8bqchhYEerwM61B+eVbjyTys6bY39ta9O8u7RG6432rVJH
iZnL8T2KTKY7CqMTzztX276/BFqiEqZCcUKK/youmRhrfuV2R/8beWZJADN1GZnK
XV2kQ7z8L6fIuCy+au3GNizWE5AAxPK8ILhZo+NTkLb3hXZFRsdVm5z5M/umqZVP
5LiBK5WUzqCpR2UsHfHvdQbLoebdiYSdjh9dQK7Q0ZyA8I1jxLMgYW3hDi/tIX3X
ZMZAMYj0SBmZgHBKhbjKWz7fP4uya5MiQaL3eQB1u+HpXxHa8i/9T5sKdFycH0S8
8nEpw49eESLqtbpStdKRpiksIHevl40mOR6uos/zWuWxV63x9P+ww9IaYREnd66u
EjCdB0YEaN3mkQEQAOOc//RR6kpnq1/BrcVWE4uSkFn9dvCdXKHT3i8Z0svyB7f9
OeKKgCYH4T+rcai9whQFYLbCEtCczCYy57a9k1hfUDIsNflwaPqLcUH/3tYi/+J3
2Q1zOhZQdUUX1Yw5/9HjmWa9Y0Q7+rHU8/3jhCku+vhgbrvl3aXEfRuZBbbGcsNL
SrHvK4ZmM8hwSe70xjiYd0gwCdF+QuzBbb80kRN8JhmWPReBL2tQsmg3pLWpIdFE
h+3forh2hs+OMOiugxzGRsuOq3jX7Yg/tyIMKmRKca+SnoNLDmzPQrqAlp9jWkLG
N+EtbQHH646MDHDf5tQcQmfoCTVNBvsenQ/VyWQuQ/rPf09etWKmI9B3SkAxrcWA
BE+9kilI1taF0hzV0c/m3A/kjnIbp0s9Nxba2lJzRW6fma4c/3Jvbx9h5dpx1FG6
vqE66jh2J3QFsWLR5Bd3kzgmpnahTwZnbRR8Cdfu6tjg2sQ7dmmSmvtmefH0/Zak
pCko5unl998eSuMxqdCf29lBjcGyQSO2Kp1E6Ll8qurEUmBKbLWjRVasQlEcwkLE
eqekVjBSUqZ/zBOJrKwvNuNqt9BNxxSpSCmqvnXFxPc7GPo0KriKyZZykk3lb6lv
UDFdp6mJLvPnevoZ8xMSh0VqPAEQMvLTUWQrAQiKtIUU2so24KI1X3nJc2m7ABEB
AAH+BwMCv3ICmteeTxXyviZey9MlVlD6NiGc8CZk2+sZ7Kl/tl7aF6oUW59FTqCS
RFOPZ2qG04aq8+kWxe9nbBX4GQRdsudqkY5lJCkpbFmYmA+oSKZuXRTLKA+gvf1P
Bcsz1g6gu4ErO0iIrJr2fyPZQXYvo7yS2clCS0tcCCPWw4uaf2JCwHEFpbCSqz8a
mpBdOfeh51UdFwT+I3h95cffF3I72vaNQttnc38B8sgcX5AHyQ5JmPmr2F/gUf/P
3FCe9V4xl99K7NMBwa9wppUnx1GnDh3FPZ/3Tx23FadxMnkFqFaOFEbBCviGb98J
TMrAHg01XGytnhAWtM4tcorBoGbdFvsNOL8MYX4/QflIHEanHm2mEUq7KqWF+Fbv
GEsJwrzzYsaoBnH03diYImI0mRGAt/kWp0FRekHBuheBydeeRLZ8ApvrgXB9S1wk
LWrCcxVSuxtg9BBWcFawzDiWmWEOSheAusrDxp0GjoY9WHc6nvf9kNFj9mMmq6Dm
rKeAmmlgz3g6BgoQ/+RcJRwTwJw8mpT9o3fqgRdSUPhnCzFHSz+85MrO7SiNUrli
HteuL/u4tzC15ns+pHX2U4eQEbxXDlWD3MmMuxd8hKAYHo6yLB5XxUgZNZbIFsVn
Scl6okCT/SYRlKiDMHAHRAYM5IkUuEG+0d+4jC93EU/6UW+v0s9ts3j0Y8RYvGjz
+KQ0axfzwXUuWRYCmnbnVia+a0eeqLhJeWWdTaCrTSwA2jHk2EEkfo+WBQGaNOmP
6St9167vJvybZ1rWd3ObgiAkZy+V/B8TCSQr4gZAuIPYy83S548jTeBPhsXkqQL0
dU94YA4JJy1c5YxJ8aVhUYuPcMTrmm//cIIQNrEoSn61Ag2M4ce+ThEQqfYFwSVh
H9ec/OoWyfpZ3PnHeEI6UwDv5paaS4Ccn/Bfy0N4PnGdK825jlhMGn/PhNC3Y4Sx
nZwdrQ4X+0VTAZ8H6j+YhBF8h3Qg5YM2DC1SgGRpw5trLUyRAjblBklR6OxabAND
AjjuzVtMy/eBjShb/alRrc4IcCAjplKy4q9UdcxjwcCTIuurAuX1bR/FBtSwp1CO
avPTgJ514qnxAdPeBys/gue4UGDPovHcOkt6lXruvVvOS6qYrljTm5MIHFB8cNAz
hHrMI2sYnNWTUQ5ZDwedBUv8ArZSalbjq0WjS6M0elUuJXnfyAZTlcSupHMIVZo6
hLDdG2KNRg3ke5oQUp1Z5yWgSjGjMR2rJPuOZBSpYP5fF0PfAwfa4NsnFmVaXoOj
jIZKkkqBubq1bq7Z3V31xD0TbXjFTQq2zCd76n1w5cRWsnHkXvLzgMGNi4CpvseN
6OW+vUf4B1ae5TrVy/ZTj46d0S1RV89SdPxOr9FuT3+/r8s+V/7sK9164Zxdf6q5
XM1xMHh+xUVOxPzDldhHNLZ1v032gMWbelDywWBlM9kgfaJbO/SBq31pIzwTRa4E
2wnUVHQR/zTBl45xmlUHAS9ZknFnzM98H0pF2O5Y8Iar5EXe8CQ1QVwr9xileaZP
Q2Ys63mzaCFHB88vdKps8qYZYC678DbJBz959nDkvIktbJ5LagdsORJAgOHlk/G8
3XjN0krhdHwXYuLn3wfEkgGSTzcVoYNd62hK9JEhTM2w0V6sH6LHjHTkwd1PKi5M
jrcFOjYwwxmcQGtWa2bErCxGTWbHFDC8R9DBj79OkvzcTLD9wbLJnf5fS87zgOZL
R72TLJBPIeMn5KMNyXh2q540v+vkC4fhcV38BFjSCVOuBrx5gEndO/hDuYkCNgQY
AQgAIBYhBIGaYRMFXt8aJH7lODCVRnxsPjvMBQJo3eaRAhsMAAoJEDCVRnxsPjvM
wbAQANCHwNvFq14oQRVofMUIdNplwe7t+/RQRwV5wwYiZDau0Q57dP1QqvLc7cot
0Lv6OyprPt6v9QQ4KAjNtCFJuFqI7I7IMeRK9WQ7G4ecrY6iFaq1FCVgSKjJEfAn
IfFNoa9BoEXqs3/H8Di5a6WrRpCsuAvLQ7bY1/9F5JhyhSXbfhydm3zzgo8pzwol
IMYjxZtpd9E1OKexaWKXYGqZKaXzeKOADvCFCit5rlyODOKwVPk6wxJjn5d49Ha7
atYkKHLG7MzLfON/LV9njbG6YwheF3cxxkp2DIEGB0xUo19siiYLwyMHjbJWiVOh
2fP8KTwhlKEedInVLgEMLCYAEG0Mj+dTH2RLhGL3a8AABFJ/OkpL0I2AJVlIkcHQ
z/t/r2z+CJHeB7Cy/33YDQ/V0ysp5B/XQCoLaJ1lhedlI0ghSTNDE8BzC9U8IKEu
gH1y4wVnJDXV2JBj7xhMNomVXYy6wtSaEuTKChp8g6+kdscT1je1JOgxKwjXhWdP
6pmAPSGT0tol0G0YJokkA6yctynIFcRqj6azXT9lrQZBFOjukByqHCjsoSYm3md/
OLu5eZrG+o4KZVlAPUW6W5MUDzWk+rSqExPdxsKwUdLFkhRZRDzG4iBDD1W5xPUP
g/xBpLlA6/yCDskDRb+FNF45bNmDDYuK0MMhs1JvW5boHdUU
=Vvff
-----END PGP PRIVATE KEY BLOCK-----
